; generated by Slic3r Prusa Edition 1.41.0+win64 on 2018-10-19 at 18:01:46

; 

; external perimeters extrusion width = 0.45mm
; perimeters extrusion width = 0.45mm
; infill extrusion width = 0.45mm
; solid infill extrusion width = 0.45mm
; top infill extrusion width = 0.40mm
; first layer extrusion width = 0.42mm

M201 X1000 Y1000 Z1000 E5000 ; sets maximum accelerations, mm/sec^2
M203 X200 Y200 Z12 E120 ; sets maximum feedrates, mm/sec
M204 P1250 R1250 T1250 ; sets acceleration (P, T) and retract acceleration (R), mm/sec^2
M205 X8.00 Y8.00 Z0.40 E1.50 ; sets the jerk limits, mm/sec
M205 S0 T0 ; sets the minimum extruding and travel feed rate, mm/sec
M107
M115 U3.4.0 ; tell printer latest fw version
M83  ; extruder relative mode
M104 S215 ; set extruder temp
M140 S60 ; set bed temp
M190 S60 ; wait for bed temp
M109 S215 ; wait for extruder temp
G28 W ; home all without mesh bed level
G80 ; mesh bed leveling
G1 Y-3.0 F1000.0 ; go outside print area
G92 E0.0
G1 X60.0 E9.0  F1000.0 ; intro line
M73 Q0 S14
M73 P0 R14
G1 X100.0 E12.5  F1000.0 ; intro line
G92 E0.0
M221 S95
M900 K30; Filament gcode
G21 ; set units to millimeters
G90 ; use absolute coordinates
M83 ; use relative distances for extrusion
;BEFORE_LAYER_CHANGE
G92 E0.0
;0.2


G1 E-0.80000 F2100.00000
G1 Z0.600 F10800.000
;AFTER_LAYER_CHANGE
;0.2
G1 X116.140 Y96.142
G1 Z0.200
G1 E0.80000 F2100.00000
M204 S1000
G1 F1200
G1 X120.204 Y93.425 E0.15328
G1 X125.003 Y92.471 E0.15340
G1 X129.794 Y93.424 E0.15316
G1 X133.858 Y96.140 E0.15328
G1 X136.575 Y100.204 E0.15328
G1 X137.529 Y104.999 E0.15328
G1 X136.576 Y109.794 E0.15328
G1 X133.860 Y113.858 E0.15328
G1 X129.796 Y116.575 E0.15328
G1 X125.001 Y117.529 E0.15328
G1 X120.206 Y116.576 E0.15328
G1 X116.142 Y113.860 E0.15328
G1 X113.425 Y109.796 E0.15328
G1 X112.471 Y105.001 E0.15328
G1 X113.424 Y100.206 E0.15328
G1 X116.107 Y96.191 E0.15140
G1 X116.408 Y96.406 F10800.000
G1 F1200
G1 X120.351 Y93.773 E0.14866
G1 X125.005 Y92.848 E0.14878
G1 X129.652 Y93.774 E0.14855
G1 X133.594 Y96.408 E0.14866
G1 X136.227 Y100.351 E0.14866
G1 X137.152 Y105.002 E0.14866
G1 X136.226 Y109.652 E0.14866
G1 X133.592 Y113.594 E0.14866
G1 X129.649 Y116.227 E0.14867
G1 X124.998 Y117.152 E0.14866
G1 X120.348 Y116.226 E0.14866
G1 X116.406 Y113.592 E0.14866
G1 X113.773 Y109.649 E0.14866
G1 X112.848 Y104.998 E0.14866
G1 X113.774 Y100.348 E0.14866
G1 X116.375 Y96.456 E0.14678
; PURGING FINISHED
G1 F8640
G1 X119.103 Y94.615 E-0.76000
G1 E-0.04000 F2100.00000
G1 Z0.800 F10800.000
G1 X121.913 Y101.347
G1 Z0.200
G1 E0.80000 F2100.00000
G1 F1200
G1 X122.186 Y101.127 E0.01101
G1 X122.606 Y100.854 E0.01571
G1 X123.053 Y100.626 E0.01571
G1 X123.520 Y100.446 E0.01571
G1 X124.005 Y100.317 E0.01571
G1 X124.500 Y100.238 E0.01571
G1 X124.974 Y100.213 E0.01489
G1 X125.499 Y100.238 E0.01648
G1 X125.995 Y100.317 E0.01576
G1 X126.480 Y100.446 E0.01571
G1 X126.947 Y100.626 E0.01571
G1 X127.394 Y100.854 E0.01571
G1 X127.814 Y101.127 E0.01571
G1 X128.204 Y101.442 E0.01571
G1 X128.558 Y101.796 E0.01571
G1 X128.873 Y102.186 E0.01571
G1 X129.146 Y102.606 E0.01571
G1 X129.374 Y103.053 E0.01571
G1 X129.554 Y103.520 E0.01571
G1 X129.683 Y104.005 E0.01571
G1 X129.762 Y104.500 E0.01571
G1 X129.788 Y105.000 E0.01571
G1 X129.762 Y105.500 E0.01571
G1 X129.683 Y105.995 E0.01571
G1 X129.554 Y106.480 E0.01571
G1 X129.374 Y106.947 E0.01571
G1 X129.146 Y107.394 E0.01571
G1 X128.873 Y107.814 E0.01571
G1 X128.558 Y108.204 E0.01571
G1 X128.204 Y108.558 E0.01571
G1 X127.814 Y108.873 E0.01571
G1 X127.394 Y109.146 E0.01571
G1 X126.947 Y109.374 E0.01571
G1 X126.480 Y109.554 E0.01571
G1 X125.995 Y109.683 E0.01571
G1 X125.500 Y109.762 E0.01571
G1 X125.000 Y109.788 E0.01571
G1 X124.500 Y109.762 E0.01571
G1 X124.005 Y109.683 E0.01571
G1 X123.520 Y109.554 E0.01571
G1 X123.053 Y109.374 E0.01571
G1 X122.606 Y109.146 E0.01571
G1 X122.186 Y108.873 E0.01571
G1 X121.913 Y108.653 E0.01101
G1 X121.913 Y106.026 E0.08237
G1 X123.051 Y107.164 E0.05048
G1 X123.288 Y107.356 E0.00956
G1 X123.544 Y107.522 E0.00956
G1 X123.816 Y107.660 E0.00956
G1 X124.100 Y107.770 E0.00956
G1 X124.395 Y107.848 E0.00956
G1 X124.696 Y107.896 E0.00956
G1 X125.000 Y107.912 E0.00956
G1 X125.304 Y107.896 E0.00956
G1 X125.605 Y107.848 E0.00956
G1 X125.900 Y107.770 E0.00956
G1 X126.184 Y107.660 E0.00956
G1 X126.456 Y107.522 E0.00956
G1 X126.712 Y107.356 E0.00956
G1 X126.949 Y107.164 E0.00956
G1 X127.164 Y106.949 E0.00956
G1 X127.356 Y106.712 E0.00956
G1 X127.522 Y106.456 E0.00956
G1 X127.705 Y106.067 E0.01348
G1 X127.615 Y106.067 E0.00284
G1 X127.587 Y106.152 E0.00280
G1 X127.291 Y106.665 E0.01856
G1 X126.895 Y107.105 E0.01856
G1 X126.416 Y107.453 E0.01856
G1 X125.875 Y107.693 E0.01856
G1 X125.296 Y107.816 E0.01856
G1 X124.750 Y107.816 E0.01711
G1 X124.129 Y107.695 E0.01984
G1 X123.584 Y107.453 E0.01872
G1 X123.105 Y107.105 E0.01856
G1 X122.709 Y106.665 E0.01856
G1 X122.413 Y106.152 E0.01856
G1 X122.230 Y105.589 E0.01856
G1 X122.168 Y105.000 E0.01856
G1 X122.230 Y104.411 E0.01856
G1 X122.413 Y103.848 E0.01856
G1 X122.709 Y103.335 E0.01856
G1 X123.105 Y102.895 E0.01856
G1 X123.584 Y102.547 E0.01856
G1 X124.125 Y102.307 E0.01856
G1 X124.704 Y102.184 E0.01856
G1 X125.296 Y102.184 E0.01856
G1 X125.875 Y102.307 E0.01856
G1 X126.416 Y102.547 E0.01856
G1 X126.895 Y102.895 E0.01856
G1 X127.291 Y103.335 E0.01856
G1 X127.587 Y103.848 E0.01856
G1 X127.615 Y103.933 E0.00280
G1 X127.705 Y103.933 E0.00284
G1 X127.518 Y103.538 E0.01372
G1 X127.356 Y103.288 E0.00932
G1 X127.164 Y103.051 E0.00956
G1 X126.949 Y102.836 E0.00956
G1 X126.712 Y102.644 E0.00956
G1 X126.456 Y102.478 E0.00956
G1 X126.184 Y102.340 E0.00956
G1 X125.900 Y102.230 E0.00956
G1 X125.605 Y102.152 E0.00956
G1 X125.304 Y102.104 E0.00956
G1 X125.000 Y102.088 E0.00956
G1 X124.696 Y102.104 E0.00956
G1 X124.395 Y102.152 E0.00956
G1 X124.100 Y102.230 E0.00956
G1 X123.823 Y102.337 E0.00932
G1 X123.543 Y102.478 E0.00981
G1 X123.288 Y102.644 E0.00954
G1 X123.051 Y102.836 E0.00956
G1 X121.913 Y103.974 E0.05048
G1 X121.913 Y101.407 E0.08049
G1 X122.290 Y101.527 F10800.000
G1 F1200
G1 X122.795 Y101.181 E0.01920
G1 X123.206 Y100.971 E0.01447
G1 X123.637 Y100.806 E0.01447
G1 X124.083 Y100.686 E0.01447
G1 X124.539 Y100.614 E0.01447
G1 X124.975 Y100.591 E0.01368
G1 X125.460 Y100.614 E0.01525
G1 X125.917 Y100.686 E0.01449
G1 X126.363 Y100.806 E0.01447
G1 X126.794 Y100.971 E0.01447
G1 X127.205 Y101.181 E0.01447
G1 X127.592 Y101.432 E0.01447
G1 X127.951 Y101.723 E0.01447
G1 X128.277 Y102.049 E0.01447
G1 X128.568 Y102.408 E0.01447
G1 X128.819 Y102.795 E0.01447
G1 X129.029 Y103.206 E0.01447
G1 X129.194 Y103.637 E0.01447
G1 X129.314 Y104.083 E0.01447
G1 X129.386 Y104.539 E0.01447
G1 X129.410 Y105.000 E0.01447
G1 X129.386 Y105.461 E0.01447
G1 X129.314 Y105.917 E0.01447
G1 X129.194 Y106.363 E0.01447
G1 X129.029 Y106.794 E0.01447
G1 X128.819 Y107.205 E0.01447
G1 X128.568 Y107.592 E0.01447
G1 X128.277 Y107.951 E0.01447
G1 X127.951 Y108.277 E0.01447
G1 X127.592 Y108.568 E0.01447
G1 X127.205 Y108.819 E0.01447
G1 X126.794 Y109.029 E0.01447
G1 X126.363 Y109.194 E0.01447
G1 X125.917 Y109.314 E0.01447
G1 X125.461 Y109.386 E0.01447
G1 X125.000 Y109.410 E0.01447
G1 X124.539 Y109.386 E0.01447
G1 X124.083 Y109.314 E0.01447
G1 X123.637 Y109.194 E0.01447
G1 X123.206 Y109.029 E0.01447
G1 X122.795 Y108.819 E0.01447
G1 X122.290 Y108.473 E0.01920
G1 X122.290 Y106.936 E0.04818
G1 X122.799 Y107.445 E0.02256
G1 X123.066 Y107.661 E0.01080
G1 X123.355 Y107.849 E0.01080
G1 X123.662 Y108.005 E0.01080
G1 X123.983 Y108.129 E0.01080
G1 X124.316 Y108.218 E0.01080
G1 X124.656 Y108.272 E0.01080
G1 X125.000 Y108.290 E0.01080
G1 X125.344 Y108.272 E0.01080
G1 X125.684 Y108.218 E0.01080
G1 X126.017 Y108.129 E0.01080
G1 X126.338 Y108.005 E0.01080
G1 X126.645 Y107.849 E0.01080
G1 X126.934 Y107.661 E0.01080
G1 X127.201 Y107.445 E0.01080
G1 X127.445 Y107.201 E0.01080
G1 X127.661 Y106.934 E0.01080
G1 X127.849 Y106.645 E0.01080
G1 X128.005 Y106.338 E0.01080
G1 X128.129 Y106.017 E0.01080
G1 X128.216 Y105.690 E0.01060
G1 X127.341 Y105.690 E0.02745
G1 X127.241 Y105.998 E0.01014
G1 X126.984 Y106.442 E0.01608
G1 X126.641 Y106.823 E0.01608
G1 X126.226 Y107.124 E0.01608
G1 X125.758 Y107.333 E0.01608
G1 X125.256 Y107.439 E0.01608
G1 X124.787 Y107.439 E0.01472
G1 X124.244 Y107.334 E0.01735
G1 X123.774 Y107.124 E0.01613
G1 X123.359 Y106.823 E0.01608
G1 X123.016 Y106.442 E0.01608
G1 X122.759 Y105.998 E0.01608
G1 X122.601 Y105.510 E0.01608
G1 X122.547 Y105.000 E0.01608
G1 X122.601 Y104.490 E0.01608
G1 X122.759 Y104.002 E0.01608
G1 X123.016 Y103.558 E0.01608
G1 X123.359 Y103.177 E0.01608
G1 X123.774 Y102.876 E0.01608
G1 X124.242 Y102.667 E0.01608
G1 X124.744 Y102.561 E0.01608
G1 X125.256 Y102.561 E0.01608
G1 X125.758 Y102.667 E0.01608
G1 X126.226 Y102.876 E0.01608
G1 X126.641 Y103.177 E0.01608
G1 X126.984 Y103.558 E0.01608
G1 X127.241 Y104.002 E0.01608
G1 X127.341 Y104.310 E0.01014
G1 X128.216 Y104.310 E0.02745
G1 X128.129 Y103.983 E0.01060
G1 X128.005 Y103.662 E0.01079
G1 X127.845 Y103.349 E0.01105
G1 X127.661 Y103.066 E0.01055
G1 X127.445 Y102.799 E0.01080
G1 X127.201 Y102.555 E0.01080
G1 X126.934 Y102.339 E0.01080
G1 X126.645 Y102.151 E0.01080
G1 X126.338 Y101.995 E0.01080
G1 X126.017 Y101.871 E0.01080
G1 X125.684 Y101.782 E0.01080
G1 X125.344 Y101.728 E0.01080
G1 X125.000 Y101.710 E0.01080
G1 X124.656 Y101.728 E0.01080
G1 X124.316 Y101.782 E0.01080
G1 X123.983 Y101.871 E0.01080
G1 X123.669 Y101.992 E0.01055
G1 X123.355 Y102.151 E0.01105
G1 X123.066 Y102.339 E0.01079
G1 X122.799 Y102.555 E0.01080
G1 X122.290 Y103.064 E0.02256
G1 X122.290 Y101.587 E0.04630
G1 X122.079 Y101.187 F10800.000
G1 F8640
G1 X122.795 Y101.181 E-0.14970
G1 X123.206 Y100.971 E-0.10659
G1 X123.637 Y100.806 E-0.10659
G1 X124.083 Y100.686 E-0.10659
G1 X124.539 Y100.614 E-0.10659
G1 X124.975 Y100.591 E-0.10075
G1 X125.335 Y100.608 E-0.08318
G1 E-0.04000 F2100.00000
G1 Z0.800 F10800.000
G1 X118.378 Y98.378
G1 Z0.200
G1 E0.80000 F2100.00000
G1 F1200
G1 X121.416 Y96.348 E0.11457
G1 X125.000 Y95.635 E0.11457
G1 X128.584 Y96.348 E0.11457
G1 X131.622 Y98.378 E0.11457
G1 X133.652 Y101.416 E0.11457
G1 X134.365 Y105.000 E0.11457
G1 X133.652 Y108.584 E0.11457
G1 X131.622 Y111.622 E0.11457
G1 X128.584 Y113.652 E0.11457
G1 X125.000 Y114.365 E0.11457
G1 X121.416 Y113.652 E0.11457
G1 X118.378 Y111.622 E0.11457
G1 X116.348 Y108.584 E0.11457
G1 X115.635 Y105.000 E0.11457
G1 X116.348 Y101.416 E0.11457
G1 X118.345 Y98.428 E0.11269
G1 X118.106 Y98.106 F10800.000
G1 F1200
G1 X121.269 Y95.993 E0.11927
G1 X125.000 Y95.251 E0.11927
G1 X128.731 Y95.993 E0.11927
G1 X131.894 Y98.106 E0.11927
G1 X134.007 Y101.269 E0.11927
G1 X134.749 Y105.000 E0.11927
G1 X134.007 Y108.731 E0.11927
G1 X131.894 Y111.894 E0.11927
G1 X128.731 Y114.007 E0.11927
G1 X125.000 Y114.749 E0.11927
G1 X121.269 Y114.007 E0.11927
G1 X118.106 Y111.894 E0.11927
G1 X115.993 Y108.731 E0.11927
G1 X115.251 Y105.000 E0.11927
G1 X115.993 Y101.269 E0.11927
G1 X118.073 Y98.156 E0.11739
G1 X118.493 Y98.210 F10800.000
G1 F8640
G1 X120.799 Y96.311 E-0.76000
G1 E-0.04000 F2100.00000
G1 Z0.800 F10800.000
G1 X126.911 Y100.491
G1 Z0.200
G1 E0.80000 F2100.00000
G1 F1200
G1 X122.784 Y96.364 E0.18358
G1 X122.338 Y96.453 E0.01431
G1 X125.900 Y100.015 E0.15848
G1 X125.528 Y99.956 E0.01187
G1 X125.296 Y99.945 E0.00731
G1 X121.892 Y96.542 E0.15142
G1 X121.527 Y96.614 E0.01172
G1 X121.468 Y96.653 E0.00220
G1 X124.757 Y99.942 E0.14629
G1 X124.269 Y99.989 E0.01542
G1 X121.148 Y96.868 E0.13884
G1 X120.827 Y97.082 E0.01213
G1 X123.819 Y100.074 E0.13310
G1 X123.400 Y100.190 E0.01367
G1 X120.506 Y97.296 E0.12873
G1 X120.186 Y97.511 E0.01213
G1 X123.013 Y100.338 E0.12580
G1 X122.653 Y100.513 E0.01260
G1 X119.865 Y97.725 E0.12401
G1 X119.544 Y97.939 E0.01213
G1 X122.312 Y100.707 E0.12314
G1 X121.991 Y100.921 E0.01214
G1 X119.223 Y98.153 E0.12310
G1 X118.903 Y98.368 E0.01213
G1 X121.695 Y101.160 E0.12422
G1 X121.630 Y101.213 E0.00263
G1 X121.630 Y101.630 E0.01314
G1 X118.582 Y98.582 E0.13560
G1 X118.368 Y98.903 E0.01213
G1 X121.630 Y102.165 E0.14514
G1 X121.630 Y102.700 E0.01683
G1 X118.153 Y99.223 E0.15467
G1 X117.939 Y99.544 E0.01213
G1 X121.630 Y103.235 E0.16420
G1 X121.630 Y103.770 E0.01683
G1 X117.725 Y99.865 E0.17374
G1 X117.510 Y100.186 E0.01213
G1 X121.926 Y104.601 E0.19641
G1 X121.884 Y105.000 E0.01263
G1 X121.895 Y105.105 E0.00332
G1 X117.296 Y100.506 E0.20457
G1 X117.082 Y100.827 E0.01213
G1 X121.630 Y105.375 E0.20234
G1 X121.630 Y105.910 E0.01683
G1 X116.868 Y101.148 E0.21187
G1 X116.653 Y101.468 E0.01213
G1 X121.630 Y106.445 E0.22140
G1 X121.630 Y106.980 E0.01683
G1 X116.542 Y101.892 E0.22636
G1 X116.453 Y102.338 E0.01431
G1 X121.630 Y107.515 E0.23031
G1 X121.630 Y108.050 E0.01683
G1 X116.364 Y102.784 E0.23426
G1 X116.276 Y103.231 E0.01431
G1 X126.769 Y113.724 E0.46683
G1 X126.323 Y113.813 E0.01431
G1 X116.187 Y103.677 E0.45093
G1 X116.098 Y104.123 E0.01431
G1 X125.877 Y113.902 E0.43503
G1 X125.431 Y113.991 E0.01431
G1 X116.009 Y104.569 E0.41912
G1 X115.928 Y105.024 E0.01451
G1 X124.976 Y114.072 E0.40252
G1 X124.309 Y113.939 E0.02142
G1 X116.061 Y105.691 E0.36690
G1 X116.194 Y106.359 E0.02142
G1 X123.641 Y113.806 E0.33128
G1 X122.973 Y113.673 E0.02142
G1 X116.327 Y107.027 E0.29566
G1 X116.460 Y107.695 E0.02142
G1 X122.305 Y113.540 E0.26004
G1 X121.637 Y113.408 E0.02142
G1 X116.377 Y108.147 E0.23403
G1 F8640
G1 X118.704 Y110.474 E-0.76000
G1 E-0.04000 F2100.00000
G1 Z0.800 F10800.000
G1 X116.898 Y109.204
G1 Z0.200
G1 E0.80000 F2100.00000
G1 F1200
G1 X120.796 Y113.102 E0.17340
G1 F8640
G1 X118.469 Y110.774 E-0.76000
G1 E-0.04000 F2100.00000
G1 Z0.800 F10800.000
G1 X123.089 Y109.509
G1 Z0.200
G1 E0.80000 F2100.00000
G1 F1200
G1 X127.216 Y113.636 E0.18359
G1 X127.662 Y113.547 E0.01431
G1 X124.099 Y109.985 E0.15848
G1 X124.470 Y110.043 E0.01180
G1 X124.705 Y110.056 E0.00742
G1 X128.108 Y113.458 E0.15137
G1 X128.473 Y113.386 E0.01172
G1 X128.532 Y113.347 E0.00220
G1 X125.243 Y110.058 E0.14629
G1 X125.731 Y110.011 E0.01543
G1 X128.852 Y113.132 E0.13884
G1 X129.173 Y112.918 E0.01213
G1 X126.181 Y109.926 E0.13310
G1 X126.600 Y109.810 E0.01367
G1 X129.494 Y112.704 E0.12873
G1 X129.814 Y112.490 E0.01213
G1 X126.987 Y109.662 E0.12580
G1 X127.347 Y109.488 E0.01260
G1 X130.135 Y112.275 E0.12401
G1 X130.456 Y112.061 E0.01213
G1 X127.688 Y109.293 E0.12314
G1 X128.009 Y109.079 E0.01214
G1 X130.777 Y111.847 E0.12310
G1 X131.097 Y111.632 E0.01213
G1 X128.305 Y108.840 E0.12422
G1 X128.581 Y108.581 E0.01191
G1 X131.418 Y111.418 E0.12621
G1 X131.632 Y111.097 E0.01213
G1 X128.840 Y108.305 E0.12422
G1 X129.079 Y108.009 E0.01197
G1 X131.847 Y110.777 E0.12310
G1 X132.061 Y110.456 E0.01213
G1 X129.293 Y107.688 E0.12314
G1 X129.487 Y107.347 E0.01233
G1 X132.275 Y110.135 E0.12401
G1 X132.489 Y109.814 E0.01213
G1 X129.662 Y106.987 E0.12580
G1 X129.810 Y106.600 E0.01303
G1 X132.704 Y109.494 E0.12873
G1 X132.918 Y109.173 E0.01213
G1 X129.926 Y106.181 E0.13310
G1 X130.011 Y105.731 E0.01440
G1 X133.132 Y108.852 E0.13884
G1 X133.347 Y108.532 E0.01213
G1 X130.058 Y105.243 E0.14629
G1 X130.071 Y105.000 E0.00766
G1 X130.056 Y104.706 E0.00928
G1 X133.458 Y108.108 E0.15137
G1 X133.547 Y107.662 E0.01431
G1 X129.985 Y104.100 E0.15848
G1 X129.960 Y103.946 E0.00490
G1 X129.804 Y103.384 E0.01834
G1 X133.636 Y107.216 E0.17046
G1 X133.724 Y106.769 E0.01431
G1 X123.231 Y96.276 E0.46683
G1 X123.677 Y96.187 E0.01431
G1 X133.813 Y106.323 E0.45093
G1 X133.902 Y105.877 E0.01431
G1 X124.123 Y96.098 E0.43503
G1 X124.569 Y96.009 E0.01431
G1 X133.991 Y105.431 E0.41912
G1 X134.072 Y104.977 E0.01451
G1 X125.023 Y95.928 E0.40253
G1 X125.691 Y96.061 E0.02142
G1 X133.939 Y104.309 E0.36691
G1 X133.806 Y103.641 E0.02142
G1 X126.359 Y96.194 E0.33129
G1 X127.027 Y96.327 E0.02142
G1 X133.673 Y102.973 E0.29567
G1 X133.540 Y102.305 E0.02142
G1 X127.695 Y96.460 E0.26005
G1 X128.363 Y96.592 E0.02142
G1 X133.624 Y101.853 E0.23403
G1 F8640
G1 X131.296 Y99.526 E-0.76000
G1 E-0.04000 F2100.00000
G1 Z0.800 F10800.000
G1 X133.102 Y100.796
G1 Z0.200
G1 E0.80000 F2100.00000
G1 F1200
G1 X129.204 Y96.898 E0.17342
M106 S255
;BEFORE_LAYER_CHANGE
G92 E0.0
;0.4


G1 F8640
G1 X131.531 Y99.226 E-0.76000
