; generated by Slic3r Prusa Edition 1.41.0+win64 on 2018-10-14 at 18:07:15

; 

; external perimeters extrusion width = 0.45mm
; perimeters extrusion width = 0.45mm
; infill extrusion width = 0.45mm
; solid infill extrusion width = 0.45mm
; top infill extrusion width = 0.40mm
; first layer extrusion width = 0.42mm

M201 X1000 Y1000 Z1000 E5000 ; sets maximum accelerations, mm/sec^2
M203 X200 Y200 Z12 E120 ; sets maximum feedrates, mm/sec
M204 P1250 R1250 T1250 ; sets acceleration (P, T) and retract acceleration (R), mm/sec^2
M205 X8.00 Y8.00 Z0.40 E1.50 ; sets the jerk limits, mm/sec
M205 S0 T0 ; sets the minimum extruding and travel feed rate, mm/sec
M107
M115 U3.4.0 ; tell printer latest fw version
M83  ; extruder relative mode
M104 S215 ; set extruder temp
M140 S60 ; set bed temp
M190 S60 ; wait for bed temp
M109 S215 ; wait for extruder temp
G28 W ; home all without mesh bed level
G80 ; mesh bed leveling
G1 Y-3.0 F1000.0 ; go outside print area
G92 E0.0
G1 X60.0 E9.0  F1000.0 ; intro line
M73 Q0 S113
M73 P0 R112
G1 X100.0 E12.5  F1000.0 ; intro line
G92 E0.0
M221 S95
M900 K30; Filament gcode
G21 ; set units to millimeters
G90 ; use absolute coordinates
M83 ; use relative distances for extrusion
;BEFORE_LAYER_CHANGE
G92 E0.0
;0.2


G1 E-0.80000 F2100.00000
G1 Z0.600 F10800.000
;AFTER_LAYER_CHANGE
;0.2
G1 X52.976 Y34.166
G1 Z0.200
G1 E0.80000 F2100.00000
M204 S1000
G1 F1200
G1 X53.441 Y33.464 E0.02642
G1 X54.151 Y32.983 E0.02687
G1 X54.990 Y32.811 E0.02687
G1 X195.004 Y32.811 E4.39001
G1 X195.834 Y32.976 E0.02653
G1 X196.542 Y33.447 E0.02664
G1 X197.016 Y34.147 E0.02653
G1 X197.188 Y34.976 E0.02653
G1 X197.189 Y175.011 E4.39070
G1 X197.024 Y175.834 E0.02631
G1 X196.559 Y176.536 E0.02642
G1 X195.846 Y177.018 E0.02698
G1 X195.000 Y177.189 E0.02705
G1 X54.989 Y177.189 E4.38995
G1 X54.166 Y177.024 E0.02631
G1 X53.464 Y176.559 E0.02642
G1 X52.982 Y175.846 E0.02698
G1 X52.811 Y175.000 E0.02705
G1 X52.811 Y34.989 E4.38995
G1 X52.965 Y34.225 E0.02443
; PURGING FINISHED
G1 F8640
G1 X53.441 Y33.464 E-0.20746
G1 X54.151 Y32.983 E-0.19788
G1 X54.990 Y32.811 E-0.19788
G1 X55.669 Y32.811 E-0.15678
G1 E-0.04000 F2100.00000
G1 Z0.800 F10800.000
G1 X56.333 Y46.024
G1 Z0.200
G1 E0.80000 F2100.00000
G1 F1200
G1 X58.736 Y48.427 E0.10654
G1 X59.128 Y47.766 E0.02410
G1 X61.088 Y48.342 E0.06406
G1 X63.392 Y48.342 E0.07223
G1 X63.591 Y48.142 E0.00885
G1 X64.662 Y47.828 E0.03497
G1 X66.497 Y46.648 E0.06841
G1 X66.425 Y46.577 E0.00317
G1 X67.390 Y45.464 E0.04618
G1 X68.147 Y43.805 E0.05717
G1 X68.184 Y43.549 E0.00810
G1 X68.960 Y42.774 E0.03440
G1 X68.340 Y42.463 E0.02173
G1 X68.407 Y42.000 E0.01468
G1 X68.147 Y40.195 E0.05718
G1 X67.677 Y39.164 E0.03554
G1 X68.372 Y38.681 E0.02656
G1 X66.024 Y36.333 E0.10411
G1 X183.976 Y36.333 E3.69828
G1 X181.628 Y38.681 E0.10411
G1 X182.323 Y39.164 E0.02656
G1 X181.853 Y40.195 E0.03554
G1 X181.593 Y42.000 E0.05718
G1 X181.660 Y42.463 E0.01468
G1 X181.040 Y42.774 E0.02173
G1 X181.816 Y43.549 E0.03440
G1 X181.853 Y43.805 E0.00810
G1 X182.610 Y45.464 E0.05717
G1 X183.575 Y46.577 E0.04618
G1 X183.503 Y46.648 E0.00317
G1 X185.338 Y47.828 E0.06841
G1 X186.409 Y48.142 E0.03497
G1 X186.608 Y48.342 E0.00885
G1 X188.912 Y48.342 E0.07222
G1 X190.872 Y47.766 E0.06406
G1 X191.264 Y48.427 E0.02410
G1 X193.667 Y46.024 E0.10654
G1 X193.667 Y163.976 E3.69828
G1 X191.264 Y161.573 E0.10654
G1 X190.872 Y162.234 E0.02410
G1 X188.912 Y161.658 E0.06406
G1 X186.608 Y161.658 E0.07222
G1 X186.409 Y161.858 E0.00885
G1 X185.338 Y162.172 E0.03497
G1 X183.503 Y163.352 E0.06841
G1 X183.575 Y163.423 E0.00317
G1 X182.610 Y164.536 E0.04618
G1 X181.853 Y166.195 E0.05717
G1 X181.816 Y166.451 E0.00810
G1 X181.040 Y167.226 E0.03440
G1 X181.660 Y167.537 E0.02173
G1 X181.593 Y168.000 E0.01468
G1 X181.853 Y169.805 E0.05718
G1 X182.323 Y170.836 E0.03554
G1 X181.628 Y171.319 E0.02656
G1 X183.976 Y173.667 E0.10411
G1 X66.024 Y173.667 E3.69828
G1 X68.372 Y171.319 E0.10411
G1 X67.677 Y170.836 E0.02656
G1 X68.147 Y169.805 E0.03554
G1 X68.407 Y168.000 E0.05718
G1 X68.340 Y167.537 E0.01468
G1 X68.960 Y167.226 E0.02173
G1 X68.184 Y166.451 E0.03440
G1 X68.147 Y166.195 E0.00810
G1 X67.390 Y164.536 E0.05717
G1 X66.425 Y163.423 E0.04618
G1 X66.497 Y163.352 E0.00317
G1 X64.662 Y162.172 E0.06841
G1 X63.591 Y161.858 E0.03497
G1 X63.392 Y161.658 E0.00885
G1 X61.088 Y161.658 E0.07223
G1 X59.128 Y162.234 E0.06406
G1 X58.736 Y161.573 E0.02410
G1 X56.333 Y163.976 E0.10654
G1 X56.333 Y46.084 E3.69640
M73 Q0 S112
M73 P0 R111
G1 F8640
G1 X58.690 Y48.382 E-0.76000
G1 E-0.04000 F2100.00000
G1 Z0.800 F10800.000
G1 X179.136 Y169.361
G1 Z0.200
G1 E0.80000 F2100.00000
G1 F1200
G1 X183.065 Y173.290 E0.17423
G1 X175.207 Y173.290 E0.24639
G1 X179.094 Y169.403 E0.17235
G1 X179.240 Y168.974 F10800.000
G1 X179.518 Y168.979
G1 F1200
G1 X180.913 Y167.584 E0.06184
G1 X181.248 Y167.752 E0.01175
G1 X181.212 Y168.000 E0.00785
G1 X181.487 Y169.912 E0.06058
G1 X181.850 Y170.706 E0.02736
G1 X181.493 Y170.954 E0.01362
G1 X179.560 Y169.021 E0.08568
G1 X179.221 Y168.710 F10800.000
G1 X179.136 Y168.597
G1 F1200
G1 X174.596 Y164.057 E0.20130
G1 X179.136 Y159.518 E0.20130
G1 X183.060 Y163.442 E0.17398
G1 X182.290 Y164.330 E0.03687
G1 X181.487 Y166.088 E0.06058
G1 X181.461 Y166.273 E0.00586
G1 X179.179 Y168.555 E0.10119
G1 X178.856 Y168.883 F10800.000
G1 F8640
G1 X176.829 Y166.249 E-0.76000
G1 E-0.04000 F2100.00000
G1 Z0.800 F10800.000
G1 X174.257 Y163.633
G1 Z0.200
G1 E0.80000 F2100.00000
G1 F1200
G1 X174.215 Y163.676 E0.00188
G1 X169.675 Y159.136 E0.20129
G1 X174.215 Y154.596 E0.20130
G1 X178.754 Y159.136 E0.20130
G1 X174.300 Y163.591 E0.19753
G1 X174.287 Y163.685 F10800.000
G1 X173.833 Y164.057
G1 F1200
G1 X169.293 Y168.597 E0.20130
G1 X164.754 Y164.057 E0.20130
G1 X169.293 Y159.518 E0.20130
G1 X173.790 Y164.015 E0.19941
G1 X174.179 Y164.257 F10800.000
G1 F8640
G1 X171.485 Y166.364 E-0.76000
G1 E-0.04000 F2100.00000
G1 Z0.800 F10800.000
G1 X169.293 Y158.754
G1 Z0.200
G1 E0.80000 F2100.00000
G1 F1200
G1 X164.754 Y154.215 E0.20130
G1 X169.293 Y149.675 E0.20130
G1 X173.833 Y154.215 E0.20129
G1 X169.336 Y158.712 E0.19941
G1 X169.093 Y159.101 F10800.000
G1 F8640
G1 X166.987 Y156.406 E-0.76000
G1 E-0.04000 F2100.00000
G1 Z0.800 F10800.000
G1 X164.414 Y153.790
G1 Z0.200
G1 E0.80000 F2100.00000
G1 F1200
G1 X164.372 Y153.833 E0.00188
G1 X159.832 Y149.293 E0.20129
G1 X164.372 Y144.754 E0.20130
G1 X168.911 Y149.293 E0.20130
G1 X164.457 Y153.748 E0.19753
G1 X164.444 Y153.842 F10800.000
G1 X163.990 Y154.215
G1 F1200
G1 X159.450 Y158.754 E0.20130
G1 X154.911 Y154.215 E0.20129
G1 X159.450 Y149.675 E0.20129
G1 X163.947 Y154.172 E0.19941
G1 X164.336 Y154.415 F10800.000
G1 F8640
G1 X161.642 Y156.521 E-0.76000
G1 E-0.04000 F2100.00000
G1 Z0.800 F10800.000
G1 X159.068 Y149.293
G1 Z0.200
G1 E0.80000 F2100.00000
G1 F1200
G1 X154.529 Y153.833 E0.20129
G1 X149.989 Y149.293 E0.20129
G1 X154.529 Y144.754 E0.20130
G1 X159.026 Y149.251 E0.19941
G1 X159.415 Y149.493 F10800.000
G1 F8640
G1 X156.720 Y151.600 E-0.76000
G1 E-0.04000 F2100.00000
G1 Z0.800 F10800.000
G1 X154.105 Y154.172
G1 Z0.200
G1 E0.80000 F2100.00000
G1 F1200
G1 X154.147 Y154.215 E0.00188
G1 X149.607 Y158.754 E0.20129
G1 X145.068 Y154.215 E0.20129
G1 X149.607 Y149.675 E0.20129
G1 X154.062 Y154.130 E0.19753
G1 X154.156 Y154.142 F10800.000
G1 X154.529 Y154.596
G1 F1200
G1 X159.068 Y159.136 E0.20130
G1 X154.529 Y163.676 E0.20129
G1 X149.989 Y159.136 E0.20129
G1 X154.486 Y154.639 E0.19941
G1 X154.729 Y154.250 F10800.000
G1 F8640
G1 X156.835 Y156.944 E-0.76000
G1 E-0.04000 F2100.00000
G1 Z0.800 F10800.000
G1 X149.607 Y159.518
G1 Z0.200
G1 E0.80000 F2100.00000
G1 F1200
G1 X154.147 Y164.057 E0.20129
G1 X149.607 Y168.597 E0.20129
G1 X145.068 Y164.057 E0.20130
G1 X149.565 Y159.560 E0.19941
G1 X149.807 Y159.172 F10800.000
G1 F8640
G1 X151.914 Y161.866 E-0.76000
G1 E-0.04000 F2100.00000
G1 Z0.800 F10800.000
G1 X154.911 Y164.057
G1 Z0.200
G1 E0.80000 F2100.00000
G1 F1200
G1 X159.450 Y159.518 E0.20129
G1 X163.990 Y164.057 E0.20130
G1 X159.450 Y168.597 E0.20130
G1 X154.953 Y164.100 E0.19941
G1 X154.564 Y163.857 F10800.000
G1 F8640
G1 X157.259 Y161.751 E-0.76000
G1 E-0.04000 F2100.00000
G1 Z0.800 F10800.000
G1 X159.874 Y159.178
G1 Z0.200
G1 E0.80000 F2100.00000
G1 F1200
G1 X159.832 Y159.136 E0.00188
G1 X164.372 Y154.596 E0.20130
G1 X168.911 Y159.136 E0.20130
G1 X164.372 Y163.676 E0.20129
G1 X159.917 Y159.221 E0.19753
G1 X159.823 Y159.209 F10800.000
G1 F8640
G1 X159.832 Y159.136 E-0.02769
G1 X162.075 Y156.893 E-0.73231
G1 E-0.04000 F2100.00000
G1 Z0.800 F10800.000
G1 X164.372 Y164.439
G1 Z0.200
G1 E0.80000 F2100.00000
G1 F1200
G1 X168.911 Y168.979 E0.20129
G1 X164.600 Y173.290 E0.19116
G1 X164.143 Y173.290 E0.01434
G1 X159.832 Y168.979 E0.19115
G1 X164.329 Y164.482 E0.19941
G1 X164.575 Y164.095 F10800.000
G1 F8640
G1 X166.678 Y166.787 E-0.76000
G1 E-0.04000 F2100.00000
G1 Z0.800 F10800.000
G1 X159.450 Y169.361
G1 Z0.200
G1 E0.80000 F2100.00000
G1 F1200
G1 X163.379 Y173.290 E0.17423
G1 X155.521 Y173.290 E0.24639
G1 X159.408 Y169.403 E0.17234
G1 X159.554 Y168.974 F10800.000
G1 F8640
G1 X161.760 Y171.705 E-0.76000
G1 E-0.04000 F2100.00000
G1 Z0.800 F10800.000
G1 X165.364 Y173.290
G1 Z0.200
G1 E0.80000 F2100.00000
G1 F1200
G1 X169.293 Y169.361 E0.17423
G1 X173.222 Y173.290 E0.17422
G1 X165.424 Y173.290 E0.24451
G1 X164.978 Y173.186 F10800.000
G1 F8640
G1 X167.733 Y170.945 E-0.76000
G1 E-0.04000 F2100.00000
G1 Z0.800 F10800.000
G1 X169.705 Y169.009
G1 Z0.200
G1 E0.80000 F2100.00000
G1 F1200
G1 X169.675 Y168.979 E0.00133
G1 X174.215 Y164.439 E0.20129
G1 X178.754 Y168.979 E0.20129
G1 X174.443 Y173.290 E0.19116
G1 X173.986 Y173.290 E0.01434
G1 X169.747 Y169.051 E0.18795
G1 X169.664 Y169.021 F10800.000
G1 F8640
G1 X169.675 Y168.979 E-0.02365
G1 X171.930 Y166.724 E-0.73635
G1 E-0.04000 F2100.00000
G1 Z0.800 F10800.000
G1 X179.590 Y159.209
G1 Z0.200
G1 E0.80000 F2100.00000
G1 F1200
G1 X179.518 Y159.136 E0.00321
G1 X184.057 Y154.596 E0.20130
G1 X188.597 Y159.136 E0.20130
G1 X186.210 Y161.523 E0.10585
G1 X185.180 Y161.826 E0.03365
G1 X183.370 Y162.989 E0.06745
G1 X179.633 Y159.251 E0.16573
G1 X179.495 Y159.246 F10800.000
G1 F8640
G1 X179.518 Y159.136 E-0.03750
G1 X181.730 Y156.924 E-0.72250
G1 E-0.04000 F2100.00000
G1 Z0.800 F10800.000
G1 X184.554 Y154.329
G1 Z0.200
G1 E0.80000 F2100.00000
G1 F1200
G1 X184.439 Y154.215 E0.00509
G1 X188.979 Y149.675 E0.20129
G1 X193.290 Y153.986 E0.19116
G1 X193.290 Y154.443 E0.01434
G1 X188.979 Y158.754 E0.19116
G1 X184.597 Y154.372 E0.19432
G1 X184.413 Y154.410 F10800.000
G1 X184.058 Y153.833
G1 F1200
G1 X179.518 Y149.293 E0.20129
G1 X184.057 Y144.754 E0.20130
G1 X188.597 Y149.293 E0.20130
G1 X184.100 Y153.790 E0.19941
G1 X183.858 Y154.179 F10800.000
G1 F8640
G1 X181.751 Y151.485 E-0.76000
G1 E-0.04000 F2100.00000
G1 Z0.800 F10800.000
G1 X188.979 Y148.911
G1 Z0.200
G1 E0.80000 F2100.00000
G1 F1200
G1 X184.439 Y144.372 E0.20129
G1 X188.979 Y139.832 E0.20129
G1 X193.290 Y144.143 E0.19115
G1 X193.290 Y144.600 E0.01434
G1 X189.021 Y148.869 E0.18928
G1 X188.701 Y149.199 F10800.000
G1 X189.403 Y149.251
G1 F1200
G1 X193.290 Y145.364 E0.17234
G1 X193.290 Y153.222 E0.24639
G1 X189.361 Y149.293 E0.17422
G1 X189.017 Y149.147 F10800.000
G1 F8640
G1 X191.688 Y146.966 E-0.76000
G1 E-0.04000 F2100.00000
G1 Z0.800 F10800.000
G1 X193.290 Y155.207
G1 Z0.200
G1 E0.80000 F2100.00000
G1 F1200
G1 X193.290 Y163.065 E0.24639
G1 X189.361 Y159.136 E0.17423
G1 X193.248 Y155.249 E0.17235
G1 X193.636 Y155.007 F10800.000
G1 F8640
G1 X193.265 Y158.541 E-0.76000
G1 E-0.04000 F2100.00000
G1 Z0.800 F10800.000
G1 X188.979 Y159.518
G1 Z0.200
G1 E0.80000 F2100.00000
G1 F1200
G1 X190.903 Y161.442 E0.08533
G1 X190.697 Y161.790 E0.01266
G1 X188.966 Y161.281 E0.05658
G1 X187.216 Y161.281 E0.05488
G1 X188.937 Y159.560 E0.07631
G1 X189.180 Y159.172 F10800.000
G1 F8640
G1 X190.903 Y161.442 E-0.62856
G1 X190.697 Y161.790 E-0.09324
G1 X190.539 Y161.743 E-0.03820
G1 E-0.04000 F2100.00000
G1 Z0.800 F10800.000
G1 X183.633 Y154.257
G1 Z0.200
G1 E0.80000 F2100.00000
G1 F1200
G1 X179.136 Y158.754 E0.19941
G1 X174.596 Y154.215 E0.20130
G1 X179.136 Y149.675 E0.20130
G1 X183.676 Y154.215 E0.20129
G1 X183.979 Y154.458 F10800.000
G1 F8640
G1 X181.348 Y156.542 E-0.76000
G1 E-0.04000 F2100.00000
G1 Z0.800 F10800.000
G1 X178.754 Y149.293
G1 Z0.200
G1 E0.80000 F2100.00000
G1 F1200
G1 X174.215 Y153.833 E0.20129
G1 X169.675 Y149.293 E0.20129
G1 X174.215 Y144.754 E0.20130
G1 X178.712 Y149.251 E0.19942
G1 X179.101 Y149.493 F10800.000
G1 X179.094 Y148.869
G1 F1200
G1 X174.596 Y144.372 E0.19942
G1 X179.136 Y139.832 E0.20130
G1 X183.676 Y144.372 E0.20129
G1 X179.136 Y148.911 E0.20129
G1 X178.893 Y149.215 F10800.000
G1 F8640
G1 X176.809 Y146.584 E-0.76000
G1 E-0.04000 F2100.00000
G1 Z0.800 F10800.000
G1 X174.215 Y143.990
G1 Z0.200
G1 E0.80000 F2100.00000
G1 F1200
G1 X169.675 Y139.450 E0.20130
G1 X174.215 Y134.911 E0.20129
G1 X178.754 Y139.450 E0.20129
G1 X174.257 Y143.947 E0.19941
G1 X174.015 Y144.336 F10800.000
G1 X173.833 Y144.372
G1 F1200
G1 X169.293 Y148.911 E0.20129
G1 X164.754 Y144.372 E0.20130
G1 X169.293 Y139.832 E0.20130
G1 X173.790 Y144.329 E0.19941
G1 X174.179 Y144.572 F10800.000
G1 F8640
G1 X171.485 Y146.678 E-0.76000
G1 E-0.04000 F2100.00000
G1 Z0.800 F10800.000
G1 X169.293 Y139.068
G1 Z0.200
G1 E0.80000 F2100.00000
G1 F1200
G1 X164.754 Y134.529 E0.20130
G1 X169.293 Y129.989 E0.20130
G1 X173.833 Y134.529 E0.20129
G1 X169.336 Y139.026 E0.19941
G1 X169.093 Y139.415 F10800.000
G1 X168.911 Y139.450
G1 F1200
G1 X164.372 Y143.990 E0.20130
G1 X159.832 Y139.450 E0.20130
G1 X164.372 Y134.911 E0.20129
G1 X168.869 Y139.408 E0.19941
G1 X169.258 Y139.650 F10800.000
G1 F8640
G1 X166.563 Y141.757 E-0.76000
G1 E-0.04000 F2100.00000
G1 Z0.800 F10800.000
G1 X163.947 Y144.329
G1 Z0.200
G1 E0.80000 F2100.00000
G1 F1200
G1 X163.990 Y144.372 E0.00188
G1 X159.450 Y148.911 E0.20130
G1 X154.911 Y144.372 E0.20129
G1 X159.450 Y139.832 E0.20129
G1 X163.905 Y144.287 E0.19753
G1 X163.999 Y144.299 F10800.000
G1 F8640
G1 X163.990 Y144.372 E-0.02771
G1 X161.747 Y146.614 E-0.73229
G1 E-0.04000 F2100.00000
G1 Z0.800 F10800.000
G1 X159.068 Y139.450
G1 Z0.200
G1 E0.80000 F2100.00000
G1 F1200
G1 X154.529 Y143.990 E0.20130
G1 X149.989 Y139.450 E0.20130
G1 X154.529 Y134.911 E0.20129
G1 X159.026 Y139.408 E0.19941
G1 X159.415 Y139.650 F10800.000
G1 F8640
G1 X156.720 Y141.757 E-0.76000
G1 E-0.04000 F2100.00000
G1 Z0.800 F10800.000
G1 X154.104 Y144.329
G1 Z0.200
G1 E0.80000 F2100.00000
G1 F1200
G1 X154.147 Y144.372 E0.00188
G1 X149.607 Y148.911 E0.20129
G1 X145.068 Y144.372 E0.20129
G1 X149.607 Y139.832 E0.20130
G1 X154.062 Y144.287 E0.19753
G1 X154.156 Y144.299 F10800.000
G1 F8640
G1 X154.147 Y144.372 E-0.02773
G1 X151.904 Y146.614 E-0.73227
G1 E-0.04000 F2100.00000
G1 Z0.800 F10800.000
G1 X149.225 Y139.450
G1 Z0.200
G1 E0.80000 F2100.00000
G1 F1200
G1 X144.686 Y143.990 E0.20130
G1 X140.146 Y139.450 E0.20130
G1 X144.686 Y134.911 E0.20129
G1 X149.183 Y139.408 E0.19941
G1 X149.572 Y139.650 F10800.000
G1 F8640
G1 X146.878 Y141.757 E-0.76000
G1 E-0.04000 F2100.00000
G1 Z0.800 F10800.000
G1 X144.262 Y144.329
G1 Z0.200
G1 E0.80000 F2100.00000
G1 F1200
G1 X144.304 Y144.372 E0.00188
G1 X139.764 Y148.911 E0.20129
G1 X135.225 Y144.372 E0.20130
G1 X139.764 Y139.832 E0.20130
G1 X144.219 Y144.287 E0.19753
G1 X144.313 Y144.299 F10800.000
G1 F8640
G1 X144.304 Y144.372 E-0.02771
G1 X142.061 Y146.614 E-0.73229
G1 E-0.04000 F2100.00000
G1 Z0.800 F10800.000
G1 X139.764 Y139.068
G1 Z0.200
G1 E0.80000 F2100.00000
G1 F1200
G1 X135.225 Y134.529 E0.20130
G1 X139.764 Y129.989 E0.20130
G1 X144.304 Y134.529 E0.20130
M73 Q1 S111
G1 X139.807 Y139.026 E0.19941
M73 P1 R110
G1 X139.564 Y139.415 F10800.000
G1 X139.383 Y139.450
G1 F1200
G1 X134.843 Y143.990 E0.20130
G1 X130.303 Y139.450 E0.20130
G1 X134.843 Y134.911 E0.20129
G1 X139.340 Y139.408 E0.19941
G1 X139.729 Y139.650 F10800.000
G1 F8640
G1 X137.035 Y141.757 E-0.76000
G1 E-0.04000 F2100.00000
G1 Z0.800 F10800.000
G1 X134.461 Y134.529
G1 Z0.200
G1 E0.80000 F2100.00000
G1 F1200
G1 X129.921 Y139.068 E0.20129
G1 X125.382 Y134.529 E0.20129
G1 X129.921 Y129.989 E0.20130
G1 X134.419 Y134.486 E0.19941
